!! 00053] TT[KA
!! Kassette von Frau Li Wenzhen, Peking - Zum Gesangsheft
!!!OTL: A xi li xi
!!!ARE: Guizhou, Weining
!! Ethnic Group: Yi
!! MM,, Seite 21, 2
!!!SCT: C0792
!!!YEM: Copyright 1995, estate of Helmut Schaffrath.
**kern
*ICvox
*Ivox
*M2/4
*k[]
*C:
{4dd
8ee
8cc
=1
2dd
=2
8dd
8ee
4cc
=3
2dd}
=4
{8dd
8cc
4a
=5
4cc
8a
8dd
=6
8dd
8cc
4a
=7
2cc}
=8
{8a
8dd
8cc
8dd
=9
8a
8dd
8cc
8dd
=10
4g
4d
=11
4g
4d}
=12
{4dd
8cc
8a
=13
8g
8cc
8a
8g
=14
4cc
8g
8a
=15
4cc
4r}
==
!!!AGN: Wuge
!! Die Stuecke sind meist uebersteuert, also verzerrt.
!!!ONB: ESAC (Essen Associative Code) Database: CHINA
!!!AMT: simple duple
!!!AIN: vox
!!!EED: Helmut Schaffrath
!!!EEV: 1.0
*-
